!!!SOCIAL_FUNCTION:	songs of the hiding-stick game
!!!PDT:	1918

Specific Region: Dakotas, Minnesota, Montana, Nebraska
!!!REG: Dakotas and Montana
!!!LING_GROUP: Siouan
!!!LANG: Tone
!!!OTL@ENG: Game Song
!!!ONM: No. 212
**kern
*Imale
*clefF4
*k[f#c#g#d#a#]
*M2/4
*MM100
4F#
=1
4f#
4f#
=2
4g#
12f#
12f#
12f#
=3
2d#
=4
4d#
12f#
12f#
12f#
=5
2c#
=6
4B
12d#
12d#
12d#
=7
2c#
=8
4d#
12c#
12c#
12c#
=9
2B
=10
4B
8B
8c#
=11
4.B
8G#
=12
4c#
8.B
16G#
=13||
*M3/4
8F#
8F#
4.F#
8F#
=14
2.F#
==
*-
!!!CNT: Native American -- Sioux
!!!MRD: 1911/07//-1914///
!!!OCL: Frances Densmore
!!!YOR1: Teton Sioux Music, Bulletin 61,
!!!YOR2: Bureau of American Ethnology, Smithsonian Institution
!!!PPR: Government Printing Office
!!!PPP: Washington, D.C.
!!!PDT: 1918///
!!!ENC: Craig Stuart Sapp
!!!END: 2002/03/25/
!!!EEV: 2002/03/31/
!!!AGN: Game Song/Song of the Hiding-stick Game
!!!MPN@@SIO: Hanghe'-pikte
!!!MPN@ENG: Kills-at-Night
!!!TXO: Teton Sioux
!!!MLC: Standing Rock Reservation, South Dakota, United States of America
!!!ARL: 45.9/-100.7#
!!!catalog: Catalogue No. 598
!!!PPG: 490
!!!EFL: 217/245
!!!VTS: 1732973360
